X: 623
T: Grey Eagle
B: jims roots
M:4/4
L:1/8
Q: 1/4=100
K:A
V:1 
%Z:Nigel Gatherer
|:cB|"A"A2 FA ECA,C|EFAc BABc|A2 FA ECA,C|EF (3ABc "E"e2 (3cec|
"A"A2 FA ECA,C | EFAc (3BcB Ac | "E"eAce dcBG | EGBd "A"(3cec:|]
"A"AF|ecAe cAeA|"D"fdAd fgaf|"A"edce cecA|"E"EGBc dBGB|
"A"AecA ecAc|"D"dABd faeg|"E"abga (3faf ed|"A"ceBc A2:|]
% abcbook-tune_id 6298c25d5042bd4ff2ae2be8


% abcbook-boost 0
% abcbook-tablature 
% abcbook-transpose 
% abcbook-lastupdated 1654178398471
% abcbook-soundfonts 
% abcbook-repeats 1


